X:3290
T:Concert Reel
R:reel
S:
H:
N:Very Rough!
D:Milltown 1999 
Z:Adrian Scahill
M:4/4
L:1/8
K:G
A2GB AEE2|GABG A3B|dBAB G3B|dged dBAc|\
BAGB AEED|GABG ABcd|eAag egdB|GBdB BAA2:||\
eaag eaag|edef gedB|dgg2 a2ga|b2ag gedg|\
eaag eaag|edef gedB|dgge d2ge|dBGA BAA2:||\


